svg/u1f97f.svg

<svg viewBox="0 0 128 128" xmlns="http://www.w3.org/2000/svg">
  <g>
    <g>
      <path d="M9.3,72.4l4.35-11.57c6.1,0.84,9.52-0.15,22.18,7.08c9.91,5.66,17.85,10.05,34.46,16.87 c10.59,4.35,24.67,6.81,24.67,6.81l-17.22,11.95C32.24,103.43,15.29,81.85,9.3,72.4z" fill="#263238"/>
      <path d="M16.74,62.93L16.74,62.93c0.43,0,0.83,0.01,1.22,0.03c4.74,0.18,12.81,4.57,22.16,9.66 C48.17,77,57.3,81.96,67.14,85.86c6.38,2.53,14.54,4.71,20.26,6.09c-3.73,1.81-9.29,3.63-16.56,3.63 c-13.7,0-28.62-6.34-44.33-18.84l-0.14-0.11l-0.15-0.09c-6.94-4.28-13.39-9.6-14.31-11.75C12.79,63.45,14.19,62.93,16.74,62.93 M16.74,59.93c-2.68,0-5.93,0.47-7.71,3.82c-2.29,4.29,15.62,15.33,15.62,15.33c19.03,15.14,34.59,19.5,46.2,19.5 c15.71,0,24.18-7.98,24.18-7.98s-16.11-3.3-26.77-7.53c-21.71-8.6-40.36-22.74-50.17-23.11C17.66,59.94,17.21,59.93,16.74,59.93 L16.74,59.93z" fill="#0071AF"/>
      <path d="M10.12,61.59c-0.95,1.22-4.68,6.28-5.88,18.2C2.99,92.14,6.01,96.6,6.01,96.6l54.9,16.66 c38.51,13.53,60.71,4.09,61.73,2.53c2.05-3.12,1.37-6.28,0.59-7.8c-6.88-13.35-21.24-18.53-25.57-20.78 c-0.53-0.28-4.61,0.24-8.74,2.1c-6.68,3-13.3,4.67-19.94,3.99c-13.19-1.34-28.01-8.1-42.42-19.6 c-11.72-9.35-11.95-11.34-12.18-11.78c-0.95-1.81,1.02-2.49,0.14-2.49S11.68,59.6,10.12,61.59z" fill="#008EC9"/>
      <linearGradient id="SVGID_1_" gradientUnits="userSpaceOnUse" x1="21.2508" x2="45.7283" y1="67.0598" y2="86.8502">
        <stop offset="0" stop-color="#26BFFF"/>
        <stop offset="1" stop-color="#26BFFF" stop-opacity="0.3"/>
      </linearGradient>
      <path d="M12.08,64.95c2.28,3.4,14.17,13.07,20.93,16.91c3.42,1.94,7.07,3.62,7.45,2.98 c0.43-0.72-0.46-1.48-2.77-3.14c0,0-6.8-4.58-9.15-6.43c-7.07-5.54-10.66-8.65-12.15-10.62c-1-1.31-2.11-3.01,0.56-3.68 c1.71-0.42,4.01-0.63,4.01-0.63c-3.24-0.91-5.46-1.01-6.65-0.91C13.37,59.52,9.3,60.8,12.08,64.95z" fill="url(#SVGID_1_)"/>
      <path d="M123.27,114.64c-5.45,3.21-20.58,6.22-36.09,4.03c-15.65-2.2-38.33-10.58-64.03-17.47 c-8.82-2.37-17.71-5.83-17.71-5.83l1.38,8.31c0,0,14.9,6.74,33.2,9.63l0.34-2.63c5.81,1.27,30.52,9.81,46.58,12.33 c15.02,2.36,28.62-0.25,34.24-3.77C123.45,117.83,123.27,114.64,123.27,114.64z" fill="#874D36"/>
    </g>
    <path d="M96.24,110.09c-0.04,1.33-2.61,4.04-13.61,1.24c-5.96-1.52-5.89-4.63-4.19-5.68 c2.59-1.6,8.49,1.19,13.87,1.89C96.38,108.06,96.26,109.32,96.24,110.09z" fill="#26BFFF"/>
  </g>
</svg>

<svg viewBox="0 0 128 128" xmlns="http://www.w3.org/2000/svg">
  <defs>
    <linearGradient id="SVGID_1_" gradientUnits="userSpaceOnUse" x1="21.2508" x2="45.7283" y1="67.0598" y2="86.8502">
      <stop offset="0" stop-color="#26BFFF"/>
      <stop offset="1" stop-color="#26BFFF" stop-opacity="0.3"/>
    </linearGradient>
  </defs>
  <path d="M9.3,72.4 L13.65,60.83 C19.75,61.67 23.17,60.68 35.83,67.91 C45.74,73.57 53.68,77.96 70.29,84.78 C80.88,89.13 94.96,91.59 94.96,91.59 L77.74,103.54 C32.24,103.43 15.29,81.85 9.3,72.4 Z" fill="#263238"/>
  <path d="M16.74,62.93 L16.74,62.93 C17.17,62.93 17.57,62.94 17.96,62.96 C22.7,63.14 30.77,67.53 40.12,72.62 C48.17,77 57.3,81.96 67.14,85.86 C73.52,88.39 81.68,90.57 87.4,91.95 C83.67,93.76 78.11,95.58 70.84,95.58 C57.14,95.58 42.22,89.24 26.51,76.74 L26.37,76.63 L26.22,76.54 C19.28,72.26 12.83,66.94 11.91,64.79 C12.79,63.45 14.19,62.93 16.74,62.93 M16.74,59.93 C14.06,59.93 10.81,60.4 9.03,63.75 C6.74,68.04 24.65,79.08 24.65,79.08 C43.68,94.22 59.24,98.58 70.85,98.58 C86.56,98.58 95.03,90.6 95.03,90.6 C95.03,90.6 78.92,87.3 68.26,83.07 C46.55,74.47 27.9,60.33 18.09,59.96 C17.66,59.94 17.21,59.93 16.74,59.93 L16.74,59.93 Z" fill="#0071AF"/>
  <path d="M10.12,61.59 C9.17,62.81 5.44,67.87 4.24,79.79 C2.99,92.14 6.01,96.6 6.01,96.6 L60.91,113.26 C99.42,126.79 121.62,117.35 122.64,115.79 C124.69,112.67 124.01,109.51 123.23,107.99 C116.35,94.64 101.99,89.46 97.66,87.21 C97.13,86.93 93.05,87.45 88.92,89.31 C82.24,92.31 75.62,93.98 68.98,93.3 C55.79,91.96 40.97,85.2 26.56,73.7 C14.84,64.35 14.61,62.36 14.38,61.92 C13.43,60.11 15.4,59.43 14.52,59.43 C13.64,59.43 11.68,59.6 10.12,61.59 Z" fill="#008EC9"/>
  <path d="M12.08,64.95 C14.36,68.35 26.25,78.02 33.01,81.86 C36.43,83.8 40.08,85.48 40.46,84.84 C40.89,84.12 40,83.36 37.69,81.7 C37.69,81.7 30.89,77.12 28.54,75.27 C21.47,69.73 17.88,66.62 16.39,64.65 C15.39,63.34 14.28,61.64 16.95,60.97 C18.66,60.55 20.96,60.34 20.96,60.34 C17.72,59.43 15.5,59.33 14.31,59.43 C13.37,59.52 9.3,60.8 12.08,64.95 Z" fill="url(#SVGID_1_)"/>
  <path d="M123.27,114.64 C117.82,117.85 102.69,120.86 87.18,118.67 C71.53,116.47 48.85,108.09 23.15,101.2 C14.33,98.83 5.44,95.37 5.44,95.37 L6.82,103.68 C6.82,103.68 21.72,110.42 40.02,113.31 L40.36,110.68 C46.17,111.95 70.88,120.49 86.94,123.01 C101.96,125.37 115.56,122.76 121.18,119.24 C123.45,117.83 123.27,114.64 123.27,114.64 Z" fill="#874D36"/>
  <path d="M96.24,110.09 C96.2,111.42 93.63,114.13 82.63,111.33 C76.67,109.81 76.74,106.7 78.44,105.65 C81.03,104.05 86.93,106.84 92.31,107.54 C96.38,108.06 96.26,109.32 96.24,110.09 Z" fill="#26BFFF"/>
</svg>
